X: 305825
M: 2/4
L: 1/16
K: G
(GF)(GA) d2g2 | g4- g2d2 | d2(ef) gbag | fgaf d2(fg) |\
(ag).f.e (dc).B.A | BGBd g2(dB) | c2(ea) (gf)(ef) | g2[G2B,2] [G2B,2] H|]
(dB) |\
(gb).a.g (fe).a.^c | (df).g.f (af).d.c | dege fde^c | (d^c)de d=cB"^D.C."A |]
K: Gm
(dc) |\
(Bc)(AB) (GB)(dg) | g2^f2 f2(fg) | a2^f2 (de)(dc) | B2(BA) GBd^f |\
g2(bg) d2(gd) | e2(ge) c2e2 | d2g2  ^fd=ef | g2G,2 G,D=E"^D.C."^F |]


